X: 1
T:WILL YE NO COME BACK AGAIN
M:C|
L:1/8
Q:80
C:Traditional
S:March
K:HP
|: {g}f/2e/2|
{Gdc}d3/2e/2{g}fd|
{g}B/2d3/2{g}A2|  !
a2{GdG}af|
{gfg}fe{A}e{g}f/2e/2|
{Gdc}d3/2e/2{g}fd|  !
{g}B/2d3/2{g}A2|
a2{GdG}af|
{gef}ed{gdc}d:| |:  !
g|
{fg}fa{g}a3/2g/2|
{fg}fa{g}aA|
{Gdc}d3/2c/2{gBd}B{G}A|  !
{GdG}e2{A}e{g}f/2e/2|
{Gdc}d3/2e/2{g}fd|
{g}B/2d3/2{g}A2|  !
a2{GdG}af|
{gef}ed{gdc}d:|
